src/assets/flags/jo.svg

<?xml version="1.0" encoding="UTF-8"?>
<svg xmlns="http://www.w3.org/2000/svg" xmlns:xlink="http://www.w3.org/1999/xlink" width="25px" height="px" viewBox="0 0 25 19" version="1.1">
<defs>
<clipPath id="clip1">
  <path d="M 0.00390625 0 L 25 0 L 25 7 L 0.00390625 7 Z M 0.00390625 0 "/>
</clipPath>
<clipPath id="clip2">
  <path d="M 0.00390625 6 L 25 6 L 25 13 L 0.00390625 13 Z M 0.00390625 6 "/>
</clipPath>
<clipPath id="clip3">
  <path d="M 0.00390625 12 L 25 12 L 25 19 L 0.00390625 19 Z M 0.00390625 12 "/>
</clipPath>
<clipPath id="clip4">
  <path d="M 0.00390625 0 L 19 0 L 19 19 L 0.00390625 19 Z M 0.00390625 0 "/>
</clipPath>
</defs>
<g id="surface1">
<g clip-path="url(#clip1)" clip-rule="nonzero">
<path style=" stroke:none;fill-rule:evenodd;fill:rgb(0%,0%,0.392157%);fill-opacity:1;" d="M 0.00390625 0 L 37.503906 0 L 37.503906 6.335938 L 0.00390625 6.335938 Z M 0.00390625 0 "/>
</g>
<g clip-path="url(#clip2)" clip-rule="nonzero">
<path style=" stroke:none;fill-rule:evenodd;fill:rgb(100%,100%,100%);fill-opacity:1;" d="M 0.00390625 6.335938 L 37.503906 6.335938 L 37.503906 12.664062 L 0.00390625 12.664062 Z M 0.00390625 6.335938 "/>
</g>
<g clip-path="url(#clip3)" clip-rule="nonzero">
<path style=" stroke:none;fill-rule:evenodd;fill:rgb(0%,60.000002%,0%);fill-opacity:1;" d="M 0.00390625 12.664062 L 37.503906 12.664062 L 37.503906 19 L 0.00390625 19 Z M 0.00390625 12.664062 "/>
</g>
<g clip-path="url(#clip4)" clip-rule="nonzero">
<path style=" stroke:none;fill-rule:evenodd;fill:rgb(100%,0%,0%);fill-opacity:1;" d="M 0.00390625 19 L 18.753906 9.5 L 0.00390625 0 Z M 0.00390625 19 "/>
</g>
<path style=" stroke:none;fill-rule:evenodd;fill:rgb(100%,100%,100%);fill-opacity:1;" d="M 5.214844 10.726562 L 5.421875 9.800781 L 4.488281 9.800781 L 5.332031 9.390625 L 4.75 8.652344 L 5.589844 9.0625 L 5.796875 8.140625 L 6.003906 9.066406 L 6.84375 8.652344 L 6.257812 9.390625 L 7.101562 9.800781 L 6.167969 9.800781 L 6.378906 10.726562 L 5.796875 9.984375 Z M 5.214844 10.726562 "/>
</g>
</svg>

<svg xmlns="http://www.w3.org/2000/svg" width="25" height="px" viewBox="0 0 25 19"><defs><clipPath id="a"><path d="M.004 0H25v7H.004Zm0 0"/></clipPath><clipPath id="b"><path d="M.004 6H25v7H.004Zm0 0"/></clipPath><clipPath id="c"><path d="M.004 12H25v7H.004Zm0 0"/></clipPath><clipPath id="d"><path d="M.004 0H19v19H.004Zm0 0"/></clipPath></defs><g clip-path="url(#a)"><path d="M.004 0h37.5v6.336H.004Zm0 0" style="stroke:none;fill-rule:evenodd;fill:#000001;fill-opacity:1"/></g><g clip-path="url(#b)"><path d="M.004 6.336h37.5v6.328H.004Zm0 0" style="stroke:none;fill-rule:evenodd;fill:#fff;fill-opacity:1"/></g><g clip-path="url(#c)"><path d="M.004 12.664h37.5V19H.004Zm0 0" style="stroke:none;fill-rule:evenodd;fill:#090;fill-opacity:1"/></g><g clip-path="url(#d)"><path d="m.004 19 18.75-9.5L.004 0Zm0 0" style="stroke:none;fill-rule:evenodd;fill:red;fill-opacity:1"/></g><path d="m5.215 10.727.207-.926h-.934l.844-.41-.582-.739.84.41.207-.921.207.925.84-.414-.586.739.844.41h-.934l.21.926-.581-.743Zm0 0" style="stroke:none;fill-rule:evenodd;fill:#fff;fill-opacity:1"/></svg>
